X: 412
T: Wugen shapeng naliluo
L: 1/8
M: 2/4
K: D
B Ad2 [I:setbarnb 1]| 
fA2F/ F/ | 
E d B d | 
A4 | 
B Ad2 | 
fA2F/ F/ | 
E d B d | 
D4 |]

@@@ Tune index: 9286
